icons-mns/audio-resourses.svg

<svg height="1em" width="auto" viewBox="0 0 105 105" fill="currentColor" xmlns="http://www.w3.org/2000/svg">
<path d="M40.3355 4.20023C40.3355 3.08626 39.8781 2.01792 39.0639 1.23022C38.2497 0.442524 37.1454 0 35.9939 0C34.8424 0 33.7381 0.442524 32.9239 1.23022C32.1096 2.01792 31.6522 3.08626 31.6522 4.20023V38.8522L30.3497 38.2641C25.6181 36.8093 20.5367 36.8093 15.8051 38.2641C11.0044 39.4775 6.72058 42.1228 3.56163 45.8246C2.02856 47.5252 0.943554 49.5594 0.399217 51.7536C-0.145119 53.9477 -0.132626 56.2368 0.43563 58.4253C1.19698 60.5078 2.45447 62.3877 4.10633 63.9128C5.75818 65.4379 7.75798 66.5653 9.94388 67.2038C12.3153 68.006 14.8126 68.4039 17.3247 68.3798C19.7463 68.3655 22.1552 68.0407 24.4885 67.4138C29.2695 66.1569 33.5406 63.5195 36.732 59.8533C39.0239 57.2025 40.2836 53.8587 40.2921 50.4028L40.3355 4.20023ZM29.959 54.6031C27.9087 56.9671 25.1705 58.6794 22.1005 59.5173C19.0857 60.4018 15.8676 60.4018 12.8528 59.5173C11.9107 59.2696 11.0405 58.8148 10.31 58.1882C9.57945 57.5616 9.00842 56.7803 8.64138 55.9051C8.49262 55.0054 8.55594 54.0847 8.82659 53.2119C9.09723 52.3391 9.56822 51.5368 10.2044 50.8648C12.3017 48.5454 15.094 46.9157 18.193 46.2026C19.747 45.7739 21.3531 45.5479 22.9689 45.5305C24.4469 45.5356 25.9139 45.7768 27.3105 46.2446C28.2257 46.489 29.0701 46.9345 29.778 47.5465C30.4859 48.1585 31.0382 48.9204 31.3917 49.7728C31.5163 50.6301 31.4531 51.5032 31.2063 52.3353C30.9594 53.1675 30.5345 53.9401 29.959 54.6031Z"/>
</svg>

<svg xmlns="http://www.w3.org/2000/svg" width="auto" height="1em" fill="currentColor" viewBox="0 0 105 105">
    <path d="M40.336 4.2a4.13 4.13 0 0 0-1.272-2.97A4.42 4.42 0 0 0 35.994 0a4.42 4.42 0 0 0-3.07 1.23 4.13 4.13 0 0 0-1.272 2.97v34.652l-1.302-.588a24.8 24.8 0 0 0-14.545 0c-4.8 1.213-9.084 3.859-12.243 7.56a13.8 13.8 0 0 0-3.163 5.93 13.55 13.55 0 0 0 .037 6.671 14 14 0 0 0 3.67 5.488 14.66 14.66 0 0 0 5.838 3.29 22.4 22.4 0 0 0 7.38 1.177 28.3 28.3 0 0 0 7.164-.966c4.782-1.257 9.053-3.895 12.244-7.56 2.292-2.651 3.552-5.995 3.56-9.451zM29.959 54.603a15.95 15.95 0 0 1-7.858 4.914 16.45 16.45 0 0 1-9.248 0 6.4 6.4 0 0 1-2.543-1.329 6.14 6.14 0 0 1-1.669-2.283c-.148-.9-.085-1.82.186-2.693a6 6 0 0 1 1.377-2.347 15.43 15.43 0 0 1 7.989-4.662 18.7 18.7 0 0 1 4.776-.672 13.8 13.8 0 0 1 4.342.714 6.2 6.2 0 0 1 2.467 1.302 6 6 0 0 1 1.614 2.226 6 6 0 0 1-.186 2.562 6.1 6.1 0 0 1-1.247 2.268"/>
</svg>
